X:1
T:Concert Piece Opus 88
T:Concert Piece Opus 88
T:Alexandre GUILMANT (1837 - 1911)
C:Alexandre GUILMANT (1837 - 1911)
%%score ( 1 2 ) { ( 3 5 7 ) | ( 4 6 ) } { ( 8 10 12 ) | ( 9 11 ) }
L:1/8
Q:1/4=63
M:4/4
K:Gb
V:1 tenor nm="Tbn"
V:2 tenor 
V:3 bass nm="Pno"
V:5 bass 
V:7 bass 
V:4 bass 
V:6 bass 
V:8 bass nm="Easy" snm="Pe"
V:10 bass 
V:12 bass 
V:9 bass 
V:11 bass 
V:1
"^Andante sostenuto" z8 | z8 |!p!"_con espressione" (B,2 G4- GF | =D2 E2- E)(EFG | A2) (A,B, C3 C | %5
 C4 B,2) (A,2 |"_cresc." G,>)B,E>F G3 G | (=EF=CD _E3) (F | D2"_dim." =CB, D2 C2) | %9
!p! (=C4 B,2) z2 | (E2 B,4 _CD |!<(! CB, =G,2- G,A,!<)!B,C) | (B,6!>(! A,2!>)! | %13
 G,F, E,2-) E,[K:bass](D,C,B,, | A,,4 B,,4 | E,2) z2 z4 | z2 z2 z4 | %17
[K:tenor]!f!"_con anima" G4- GFGF |"^marcato" EDED CB,A,G, | C>D!<(! =D2- DEFG!<)! | %20
 A,3 B,/C/ =C D2 A, |!>(! (=A,2 B,2-!>)! B,)_C/D/ E/F/G/_A/ | B4 B,2 CD | %23
 (=D/F/) E2 (B,- B,/_D/ C2) G, |!<(! F,>G,A,>B, C>DE>F!<)! |!ff!!>(! G6-!>)! G z |"_cantando" z8 | %27
 z4 z!p! (A,2 A, | G4- GED=C | F6) z2 |"_dolce""^tranquilamente" (F2 =DB, G,2 A,B, | F4- F) z z2 | %32
!<(! (F2 =DB,!<)!!>(! G,2 A,B,!>)! |!p! G4- GECB,) | (B,4 =A,3 B,) | %35
 !fermata!B,4"^cadenza ad lib." z/ B,,/=C,/=D,/E,/F,/=G,/=A,/ B,/F,/G,/A,/B,/=C/=D/E/ F/B,/C/D/E/F/=G/=A/ B4 z F=G_A =DEFB, =C=DF,=G, B,2 _A,2 F,2 =D,2 | %36
 B,,4 z4 |[K:bass]!p! B,,,6 z2 ||[K:Eb][M:3/4][Q:1/4=114]"^Allegro Moderato"[Q:1/4=104] z6 | z6 | %40
 z6 | z6 | E,F,/G,/ A,/B,/C/D/ E2- | ED F (!>!B,2 A,) | (G,3 A, B,C) | (!>!E,2 D,2) z2 | %46
!mf! (E,3 =E, F,^F,) | (!>!^F,2 G,4) |"_cresc." G,3 A, =A,^A, | ^A,2 =B,4 | C>D E3 =A, | %51
 FB, =B,3 C/D/ | E2 G,3 =A, | =A,2 B,2 z2 |!f! B,,C,/D,/ E,/F,/G,/=A,/ B,2- | B,=A, C !>!F,2 E, | %56
"_dim." D,2 C,B,, =A,,G,, | F,,2 z2 z2 | z6 | z6 |!p! (D3 =A, B,G,) | (F3 C DB,) | %62
!<(! (_C4!<)! B,2) |!>(! (B,2!>)! =A,2) z2 |!<(! _D2 _C2 B,2!<)! |!>(! B,2 =A,4!>)! | %66
"_dolce" (B,4 CD | F,3 G, =A,E | D3 C B,2) | z6 | (G2 =A,3 B, | D3 C DB, | =A,2 F,2) z2 | (B,4 CD | %74
!<(! F,3 G, =A,E!<)! |!>(! D6-) | !breath!D!>)!CB,=A,G,F, | E,D,C,B,,=A,,G,, |"_dim." F,,6- | %79
!pp! F,,2 z4 | z6 | z6 |!pp!"_con calma" (B,4 =A,2 | G,2 =A,C F,2) | z6 | z6 |!p! (_G,4 F,2 | %87
 E,2 F,A, _D,2) |!f!"_con fuoco" =D,2 z4 | z6 |[K:tenor] D,=E,/^F,/ G,/=A,/=B,/C/ D2 | %91
 D^C =E =A,2 G, | (G,^F,) z2 z2 | z =B, D G,2 F, | (F,=E,) z4 | F,G,/=A,/ B,/C/D/=E/ F2- | %96
 F=E G (C2 B, | =A,3 B, CD) | (F,2 =E,2) z2 |!p! (F,3 ^F, G,A,) | (!>!^G,2 =A,2) z2 | %101
 (=A,3 ^A, B,^B,) | (^B,2 ^C2) z2 |!pp! (_D4"_calmato" =C2 | _B,2 CE A,2- | A,) z z2 z2 | z6 | z6 | %108
 !fermata!z6 ||[M:4/4][Q:1/4=92]"^Andante sostenuto"[Q:1/4=63]!p! (A,2 F4- FE | C2 _D2- D)(DEF | %111
 _G2) _G,A, =A,3 A, |"_cresc." (=A,2 _A,4) _G,2 |!f!!<(! =E,>^G,^C>E =E2 E2!<)! | %114
!ff! ^c3"_marcato" =A E=C=A,=E, |[K:bass] !>!^C,2 !>!=B,,2 !>!=A,,2 !>!^G,,2 | %116
"_dim." (=G,,4 _A,,4 |!p! B,,4) z4 | z8 || %119
[M:3/4][Q:1/4=144]"^Allegro moderato"[Q:1/4=104]!f! E,F,/G,/ A,/B,/C/D/ E2- | ED F (!>!B,2 A,) | %121
 (G,3 A, B,C) | (E,2 D,2) z2 | E,3 =E, F,^F, | ^F,2 G,2 z2 | A,3 =A, B,=B, | B,2 C2 DE | F2 F,4 | %128
 B,2 B,,4 | E,2 z4 |[K:Eb] z6 |[K:Eb]!ff!"_sempre" E4 D2 | C2 DF B,2 | (3EDE (3D^CD (3_D=CD | %134
 (3C=B,C (3_C_B,C (3B,=A,B, | =A,3 B, CD | E4 E2- | (3EGE (3B,EB, (3G,B,G, | %138
 E,F,/G,/ A,/B,/C/D/ E/F/G/A/ | B6 | B,4 B,,2 | E,4 z2 | z6 |!ff! _G4 F2 | A2 FA _D2 | %145
 (3_GFG (3F=EF (3_F_EF | (3E=DE (3D^CD (3_D=CD | _CB, A,_G, F,E, | D,2!sfz! B,4 | E,2!sfz! E4- | %150
 EF!>!G!>!A!>!Bz/B,/ | (!>!F2 E2) z2 |!ff! C6 | (TD6{C)D} | E6- | E z z2 z2 | z2 z2 z3/2 E/ | %157
 E4 z3/2 E,/ | !fermata!E,6 |] %159
V:2
 x8 | x8 | x8 | x8 | x8 | x8 | x8 | x8 | x8 | x8 | x8 | x8 | x8 | x5[K:bass] x3 | x8 | x8 | x8 | %17
[K:tenor] x8 | x8 | x8 | x8 | x8 | x8 | x8 | x8 | x8 | x8 | x8 | x8 | x8 | x8 | x8 | x8 | x8 | x8 | %35
 x40 | x8 |[K:bass] x8 ||[K:Eb][M:3/4] x6 | x6 | x6 | x6 | x6 | x6 | x6 | x6 | x6 | x6 | x6 | x6 | %50
 x6 | x6 | x6 | x6 | x6 | x6 | x6 | x6 | x6 | x6 | x6 | x6 | x6 | x6 | x6 | x6 | x6 | x6 | x6 | %69
 x6 | x6 | x6 | x6 | x6 | x6 | x6 | x6 | x6 | x6 | x6 | x6 | x6 | x6 | x6 | x6 | x6 | x6 | x6 | %88
 x6 | x6 |[K:tenor] x6 | x6 | x6 | x6 | x6 | x6 | x6 | x6 | x6 | x6 | x6 | x6 | x6 | x6 | x6 | x6 | %106
 x6 | x6 | x6 ||[M:4/4] x8 | x8 | x8 | x8 | x8 | E4 ^C2 =A,=E, |[K:bass] x8 | x8 | x8 | x8 || %119
[M:3/4] x6 | x6 | x6 | x6 | x6 | x6 | x6 | x6 | x6 | x6 | x6 |[K:Eb] x6 |[K:Eb] x6 | x6 | x6 | x6 | %135
 x6 | x6 | x6 | x6 | x6 | x6 | x6 | x6 | x6 | x6 | x6 | x6 | x6 | x6 | x6 | x6 | x6 | x6 | x6 | %154
 x6 | x6 | x6 | x6 | x6 |] %159
V:3
!p! (C2"_sost." =A,4 B,2 | G,2 F,2- F, _F,2 E,) | [E,G,B,]4 [=D,C]4 | (B,3 A, G,2 F,2) | %4
[K:treble] E4 [CE]4 | [A,C_F]4 [A,B,=F]2 [A,B,=D]2 |"_cresc." [G,B,E]4 [G,G]4 | =C4- C2 [=A,=C]2 | %8
 [B,D]2"_dim." F,2 =G,2 =A,2 |!p! z (F=G=A B2 =cd | [EBe]2) E6 |!<(! E2 =G2- GA E2!<)! | %12
!>(! F2 =D2 E2 F2!>)! | B,2 A,2 B,2 z2 |!p! ([A,CE]4 [B,=D]4 | %15
"^con anima" E>)E!f!"_cresc."F>G =G>AB>c | !>!=c!>!d!>![G=d]!>![Ge] (!>![_C_DF]2 [EG][FA]) | %17
 [B,GB]B,/C/ D>G B2!sfz! [Gg]2- |"^marcato" [Gg][Ff][Gg][Ff] [Ee][Dd][Cc][B,B] | %19
 [CAc]4 [CAc]2 [CEA]2 | A2 G2 [CF]4 | ([CDF]2 [B,DG]4) [B,D]2 | %22
!ff! [Bb]>[Aa][Gg]>[Ff] [Gg]>[Ff][Ee]>[Dd] | [CAc]2 [CE]2 [CEA]2 [CEG]2 | [CDF]2 z2 [Fcd]2 z2 | %25
!ff! [^F=A=d^f] [=DFAd]2 [DFA] [DFAd] [DFA]2 [DF] | !arpeggio![_G_A] z [GA]2 z2 E2 | %27
!<(! D2 [=CG]2 [DF]2!<)! [=B,F]2 | =C2 B,2 A,2 A,2 | z2 F,2-!>(! F,=G,_A,=A,!>)! | %30
 [B,=DF]4 [B,_DG]4 |!<(! [B,=DF]2 [A,=B,DF-]2!<)!!>(! =A,4!>)! | %32
!p!!<(! [F,B,=DF]4!<)!!>(! [G,B,_DG]4!>)! |!p! !arpeggio![CG]2 !arpeggio![CG]2 !arpeggio![cg]2 z2 | %34
 [=CEF]8 | !fermata![B,=DF]4 x4 !fermata!z4 x4 x4 x4 x4 x4 x4 x4 | %36
!p! z4!<(! ([F,A,=D]2 [A,DF]2!<)! |!>(! (!arpeggio![=D-F-=c]4 !fermata![DFB]2))!>)! !fermata!z2 || %38
[K:Eb][M:3/4]!ff! EF/G/ A/B/c/d/ (e2- | ed f) (!>!B2 A) | [B,EG]2 [CEA][_DGB][EAc][EAce] | %41
 [B,EFB]2 [B,DFB]2 z2 | [G,B,E]2 z2 z .[B,E] | [A,B,A]2 z2 [B,FA]2 | [B,EG]2 [B,E]2 [A,CF]2 | %45
 [G,B,E]2 [F,B,D]2!mf! z2 | (B,=A, B,2) ([_A,B,]2- | [A,B,-]2 [G,B,])(B,EF) | %48
"_cresc." (D^C D2) ([=CD]2- | [CD-]2 [=B,D])!f!(DGF | EDCB,=A,C | D2 z (D [FA])[EG]/[DF]/ | %52
 [CE]2) z (D [CE][=A,F] | !>![CE]2!<(! [B,D]2) z2!<)! |!f! [DFB]2 z2 z .F | [EF]2 z2 [EFc]2 | %56
 [DFB]c/d/ e/f/g/=a/ (b2- | b=a c') (f2 e) | (d3 =A BG) |!p! (f3 c dB) | z2 [CD=A]z[B,DG] z | %61
 z2 [EFe]z[DFB] z | z2 [_CE_G_c]2 [B,EG=G]2 | [E-_G]2 [EF=A]G"_cresc."FA |!<(! [E_G]4 [DEG]2!<)! | %65
!sfz! ([E_GB]2!>(! [CE=A]4)!>)! |!p! F2 E2 D2 | C2 E4 | D2 =A,2 B,2 |!mf! (g2 !>!A3 B) | %70
 z2 ([CG]2 [DF]2) | [B,EB]6 | [=A,F]2 [_EF-]4 | [DF]2 z2 B,2 | (F4 E2) | (D2 E2 ^F2 | %76
 [DG]2) z2 z2 | [CEG]2 z2 z2 | z2!>(! ([=A,F]2 [B,F_G]2 | [=B,FG]2 [CEA]2 [E=A]2)!>)! | %80
"^con calma"!pp! (B4 =A2 | [B,EG]2 [CE=A][B,EB] [=A,EF]2) | [B,DF]6 |!<(! E4 [EF]2!<)! | %84
!pp!"_subito" (_G4 F2 | [_CE]2 [A,CF][G,CEA] [=F,C_D]2) | [_G,B,_D]6 | _C4 [C_D]2 | %88
!f! [=A,=D]=E/^F/ =G/=A/=B/^c/ d2- | d^c =e (!>!=A2 G) | [D^F]2 z2 z .[D=A] | G2 z2!sfz! =A2 | %92
!sfz! D2 z2!sfz! D2 | [DG]2 z2!sfz! [DG]2 |!sfz! G2 G !>!C2 B, |"^marcato" (F4 =E2 | D2 =EG c2) | %97
 ([cf]4 [=A=e]2 | [FBd]2 eg c2- | c2)!p! (C2 !>!B,2- | B,2 =A,2)"_cresc." z2 | ([^C=A]4 [=D^G]2) | %102
 ([D^G]2 [^C=A]2) z2 |!pp!"_calmato" [_A,_DF]6 | _G6 |!p! (_d4 c2 | [_D_GB]2 [DGc][DGe] [CGA]2) | %107
"_cresc." ([_F_c]2 F2 [F_G][F_A]) |!>(! ([CE=A]4!>)!!pp! !fermata![CEB]2) || %109
[M:4/4]!p! [_DF]4 [=A,C]4 | (A3 _G F2 E2) | [_D_G]4 [DG]4 |"_cresc." [_D_G]4 [CG]4 | %113
"_cresc." [^C=E]4 [DE]4 |!ff!!ff! !///-![=E=A]4 ^c4 | !///-![=E=A]4 ^c4 |"_dim." [_B_d]4 _A2 _G2 | %117
!p!!p! (_c4- c =A2 B) | !arpeggio!!fermata![A,DFB]8 ||[M:3/4]!f!!f! [G,B,E]2 z2 z .[B,E] | %120
 [A,B,A]2 z [DB] E[B,FA] | [B,EG]3 [CEA] [B,EB][A,CE] | [G,B,]C [B,D]C B,[DA] | %123
 [B,EG]2 B,2 [A,B,]2 | [D^F]2 [EG]2 [EG]2 | [EA]2 E2 [_DE]2 | ([_DF=B]2 [CEA]2) z2 | %127
 [EF=A]3 A!sfz! [Aef]2 | [DFB]3 B!sfz! [Adf]2 |"^piu mosso"!ff!"_con fuoco" [EGBe]4 [EGBd]2 | %130
[K:Eb] [EAc]2 [FAd][Ef] [DAB]2 |[K:Eb] [EGB]4 [EG=B]2 | [EAc]2 [A_B]2 [AB]2 | [Be]2 [Ad]2 [B_d]2 | %134
 [Ac]2 [_G_c]2 [FB]2 | [EF=A]4 z2 | [E=Ace]3 [Ff] [Gg][A=a] | [Begb]6 | [B,EGB]6 | %139
 !>![FABe]2 !>![FABd]2 !>![EGB_d]2 | [=EGB]2 [FA]2 !arpeggio!!>![DABf]2 | %141
!ff!"_sempre" [EGBe]4 [EGBd]2 | [Ac]2 [Ad]f [DAB]2 | [_D_FB]4 [=DGB]2 | [E_G_c]2 c2 c2 | %145
 [_GB]2 _c2 [G_d]2 | [_G_c]2 [=Ad]2 [_A_d]2 | [FA_c][_GB][FA][EG][_CF][=CE] | %148
 [B,D]B,/C/ D/E/F/G/ A/B/c/d/ | ef/g/ a/b/c'/d'/ e'/f'/g'/=a'/ | [e'g'b'] z!sfz! [EGB]2 z2 | %151
!sfz! [B,D]!>!F!>!G!>!A!>!Bz/B,/ |!ff! [A,EF]6 | [A,B,DF]6 | ([B,E]F/G/ A/B/c/d/) .e.B | %155
 (ef/g/ a/b/c'/d'/) .e'.b | [ee']4 z3/2 [GBeg]/ | [GBeg]4 z3/2 [G,B,E]/ | !fermata![G,B,E]6 |] %159
V:4
 (C,2 =A,,4 B,,2 | G,,2 F,,2- F,, _F,,2 E,,) | [E,,B,,]4 A,,4 | (G,,3 F,, E,,2 D,,2) | %4
 (C,,3 B,,, A,,,G,,F,,E,,) | =D,,2 =D,4 F,2 | E,2 D,2 C,2 B,,2 | =A,,4- A,,=G,, F,,2 | %8
 B,,2 D,,2 E,,2 [F,,E,]2 | (!arpeggio![B,,,F,,E,]4 !arpeggio!D,)=C,B,,_A,, | =G,,2 G,,F,, E,,4 | %11
 A,,2 B,,2 C,2 A,,2 | =D,,2 B,,,2 C,,2 D,,2 | E,,2 F,,2 G,,2 z2 | [A,,,A,,]2 z2 [B,,,B,,]2 z2 | %15
 [E,,,E,,]2 [E,,E,]2 [D,,D,]2 [C,,C,]2 | [B,,,B,,]2 [=A,,,=A,,]2 [_A,,,_A,,]2 [D,,,D,,]2 | %17
 [G,,,G,,][G,,,G,,]/[A,,,A,,]/ [B,,,B,,]>[D,,D,] [G,,G,]2 z2 | z8 | %19
 [A,,A,]3 [E,,E,] [A,,,A,,]2 [G,,,G,,]2 | [F,,,F,,]2 [E,,,E,,]2 [D,,,D,,]2 [D,,D,]2 | %21
 [G,,,G,,]3 [D,,D,] [G,,G,]4 | G,>F,E,>D, E,>D,C,>B,, | %23
 A,,>E,,[A,,,A,,]>[G,,,G,,] [F,,,F,,]2 [A,,,A,,]2 | [D,,D,]2 z2 [A,,D,]2 z2 | %25
 [=D,,=A,,=D,] [^F,,A,,D,G,]2 [A,,D,F,=A,] [F,,A,,D,F,] [A,,D,F,A,]2 [D,F,A,] | %26
 !arpeggio![=C,_A,E] z [=CE]2 z2 [G,A,]2 | [F,A,]2 [E,A,]2 [D,A,]2 [=D,A,]2 | %28
 [E,A,]2 [D,,D,]2 [=C,,=C,]2 [G,,G,]2 | [F,,F,]2 [E,,E,]2 [D,,D,]2 [=C,,=C,]2 | %30
 [B,,,B,,]4 [B,,G,]4 | [B,,F,]4 [B,,F,]4 | [B,,,B,,]4 [_F,,,_F,,]4 | [E,,,E,,]6 z2 | [F,,,F,,]8 | %35
 !fermata![B,,,B,,]4 x4 !fermata!z4 x4 x4 x4 x4 x4 x4 x4 | B,,,8- | %37
 B,,,4- !fermata!B,,,2 !fermata!z2 ||[K:Eb][M:3/4] [E,,B,,G,]2 z2 z .[G,,G,] | %39
 [F,,F,]2 z2 [D,,D,]2 | [E,,E,][_D,,_D,][C,,C,][B,,,B,,][A,,,A,,][F,,,F,,] | %41
 [B,,,B,,]2 [B,,F,A,]2 z2 | [E,,B,,E,]2 z2 z .[G,,G,] | F,2 z2 D,2 | E,2 [G,,,G,,]2 [A,,,A,,]2 | %45
 [B,,,B,,]4 (A,,2 | G,,^F,, G,,2 D,,2 | E,,4) z2 | =B,,^A,, B,,2 ^F,,2 | G,,3 (F, E,D, | %50
 C,B,,=A,,G,,F,,E,, | D,,D, G,,3) (=A,,/=B,,/ | C,D,E,=B,,C,F,, | B,,3) (C,/D,/ E,/F,/G,/=A,/ | %54
 B,2) z2 z .D, | C,2 z2 =A,,2 | B,,2 z2 z .[G,B,=E] | [F,CF]2 z2 [F,C]2 | z2 ([^F,=A,C]2 [G,B,]2) | %59
 z2 ([=A,CE]2 [B,D]2) | z2 [^F,,D,]z[B,,F,] z | z2 [=A,,F,]z[B,,F,] z | z2 (E,,2 E,2 | E,,4) z2 | %64
 z2 (E,,2 E,2 | E,,4 E,2) | D,2 C,2 B,,2 | =A,,2 G,,2 F,,2 | B,,2 E,2 D,2 | z2 ([E,C]2 [D,B,]2) | %70
 z2 ([E,,E,]2 [D,,D,]2) | [C,,C,]6 | F,,2 G,,2 =A,,2 | (D,2 C,2 B,,2 | =A,,2 G,,2 F,,2 | %75
 ^F,,2 G,,2 =A,,2 | B,,2) z2 z2 | C,2 z2 z2 | z2 (E,,2 D,,2 | _D,,2 C,,2 [_C,,F,,]2) | %80
 (3B,,,F,,B,,, (3F,,B,,,F,, (3B,,,F,,B,,, | (3F,,B,,,F,, (3B,,,F,,B,,, (3F,,B,,,F,, | %82
 (3B,,,F,,B,,, (3F,,B,,,F,, (3B,,,F,,B,,, | (3F,,B,,,F,, (3B,,,F,,B,,, (3F,,B,,,F,, | %84
 (3_G,,,_D,,G,,, (3D,,G,,,D,, (3G,,,D,,G,,, | (3_D,,_G,,,D,, (3G,,,D,,G,,, (3D,,G,,,D,, | %86
 (3_G,,,_D,,G,,, (3D,,G,,,D,, (3G,,,D,,G,,, | (3_D,,_G,,,D,, (3G,,,D,,G,,, (3D,,G,,,D,, | %88
 [^F,,,^F,,]2 z2 z .[^F,,^F,] | [=E,,=E,]2 z2 [^C,=A,]2 | [D,=A,]2 z2 z .[^F,,^F,] | %91
 [=E,,=E,]2 z2 [^C,,^C,]2 | [D,,D,][^F,,^F,] [=A,,=A,] [D,,D,]2 [^C,,C,] | %93
 [C,,C,][=B,,,=B,,] z2 [B,,,B,,]2 | [C,,C,]2 z2 !arpeggio![=E,,C,G,]2 | %95
 (3F,,C,F,, (3C,F,,C, (3F,,C,F,, | (3C,F,,C, (3F,,C,F,, (3C,F,,C, | %97
 (3F,,C,F,, (3C,F,,C, (3F,,C,F,, | (3C,F,,C, (3F,,C,F,, (3B,,C,B,, | =A,,4 =E,,2 | %100
 (C,3 ^C, D,^D,) | (^D,2 =E,2 F,2) | (=E,3 F, ^F,=G,) | (3_A,,,A,,A,,, (3A,,A,,,A,, (3A,,,A,,A,,, | %104
 (3A,,A,,,A,, (3A,,,A,,A,,, (3A,,A,,,A,, | (3A,,,A,,A,,, (3A,,A,,,A,, (3A,,,A,,A,,, | %106
 (3A,,A,,,A,, (3A,,,A,,A,,, (3A,,A,,,A,, | (3A,,,A,,A,,, (3A,,A,,,A,, (3A,,,"^rall."A,,A,,, | %108
 (3A,,A,,,A,, (3A,,,A,,A,,,- [A,,,A,,]2 ||[M:4/4] A,,4 _G,,4 | F,,3 E,, _D,,2 C,,2 | %111
 [B,,,B,,]4 [E,,,E,,]4 | [A,,,A,,]4 [E,,E,]4 | [^G,,^C,]4 [=E,,=B,,]4 | !///-![=A,,,=E,,]4 (=A,,4 | %115
 [=A,,,=E,,=A,,]2) z2 [A,,,A,,]2 [^G,,,^G,,]2 | !///-!G,,,2 G,,2 !///-!_A,,,2 _A,,2 | [G,,,B,,]8 | %118
 !fermata![B,,,B,,]8 ||[M:3/4] [E,,B,,E,]2 z2 z .G, | [F,,B,,F,]2 z [B,,,B,,][C,,C,][D,,D,] | %121
 [E,,E,][D,,D,][E,,E,][C,,C,][G,,,G,,][A,,,A,,] | %122
 [B,,,B,,][=A,,,=A,,][B,,,B,,][_A,,,_A,,][G,,,=G,,][F,,,F,,] | %123
 [E,,,E,,][B,,,B,,] [E,,E,]2 [D,,D,]2 | [E,,E,]3 [B,,,B,,] [E,,E,][_D,,_D,] | %125
 [C,,C,][=B,,,=B,,] [C,,C,]2 [G,,,G,,]2 | [A,,,A,,]4 [G,,,G,,]2 | [F,,,F,,]2 [F,,F,]3 [F,,,F,,] | %128
 [B,,,B,,]2 [B,,B,]3 [B,,,B,,] | (3E,,B,,E,, (3B,,E,,B,, (3E,,B,,E,, | %130
[K:Eb] (3B,,E,,B,, (3E,,B,,E,, (3B,,E,,B,, |[K:Eb] (3E,,B,,E,, (3B,,E,,B,, (3E,,_B,,E,, | %132
 (3B,,E,,B,, (3E,,B,,E,, (3B,,E,,B,, | [E,,E,]2 [F,,F,]2 [G,,G,]2 | [A,,A,]2 [=A,,=A,]2 [B,,B,]2 | %135
 [C,C][=B,,=B,] [C,C]2 z2 | [F,,F,][=E,,=E,] [F,,F,]2 z2 | [B,,,B,,]6 | B,,6 | !///-!B,,,3 B,,3 | %140
 !///-!B,,,3 B,,3 | (3E,,B,,E,, (3B,,E,,B,, (3E,,B,,E,, | (3B,,_E,,B,, (3E,,B,,E,, (3F,,B,,F,, | %143
 (3_G,,_D,G,, (3D,G,,D, (3G,,D,G,, | (3_D,_G,,D, (3G,,D,G,, (3D,G,,D, | %145
 _G,,2 [A,,,A,,]2 [B,,,B,,]2 | [_C,,_C,]2 [=C,,=C,]2 [_D,,_D,]2 | %147
 [=D,,D,][E,,E,][F,,F,][_G,,_G,][A,,A,][G,,G,] | [B,,F,]2 z2 .[A,,B,,A,]2 | %149
 [G,,B,,G,]2 z2 .[C,,C,]2 | [B,,,B,,] z [B,,E,G,B,]2 z2 | [G,,,B,,]!>!F,!>!G,!>!A,!>!B, z | %152
 !///-!B,,,3 B,,3 | !///-!B,,,3 B,,3 | (E,,F,/G,/ A,/B,/C/D/) .E.B, | %155
 (ED/C/ B,/A,/G,/F,/) .E,.B,, | [E,,E,]4 z3/2 [E,B,E]/ | [E,B,E]4 z3/2 [E,,B,,E,]/ | %158
 !fermata![E,,B,,E,]6 |] %159
V:5
 x8 | x8 | x8 | B,8 |[K:treble] A,3 B, x4 | x8 | x4 E2 D2 | x4 _CB, x2 | x8 | =A,2 =C2 B,2 CD | %10
 x2 B,A, =G,4 | A,B,D_F E2 E2 | [B,B]8 | E4- E2 z2 | A,2 G,2 [F,A,]4 | %15
 [G,B,]2 [G,B,]2 [CDF]2 [DF]2 | [DG]2 =DE x2 C2 | x8 | x8 | x8 | C4 x4 | x8 | x8 | x8 | x8 | x8 | %26
 ((!>!_g4 g)ed=c) | (B A2) (A A2) x2 | (G4 [EG]2) E2 | [=CF-]4 [B,F]2 [EF]2 | x8 | x4 [=CEF]C=DE | %32
 x8 | G,2[I:staff +1] [E,G,]2 [EG]2 x2 | x8 | x40 | x8 | x8 ||[K:Eb][M:3/4] x4[I:staff -1] z .B | %39
 [FA]2 z2 [B,F]2 | x6 | x6 | x6 | x6 | x6 | x6 | x6 | x6 | x6 | x6 | x6 | x6 | x6 | x6 | x6 | x6 | %56
 x6 | z4 [Fc]2 | z2 D2 D2 | z2 F2 F2 | x6 | x6 | x6 | =C2- C2 z2 | x6 | =C2 (=G2 F2) | x6 | %67
 x2 B,2 =A,2 | x6 | z2 (F2 F2) | x6 | x6 | A2 B,2 C2 | B,2 x4 | C2 B,2 [=A,C]2 | C2 B,2 [=A,C]2 | %76
 G,2 x4 | x6 | x6 | x6 | [B,DF]6 | x6 | x6 | B,2 CB, =A,2 | [_G,B,D]6 | G,2 x4 | x6 | %87
 _G,2 A,G, F,2 | x4 z .[D=A] | [=EG]2 z2 E2 | x6 | x6 | x6 | x6 | C=E x2 z2 | [=A,C]6 | B,6 | F6 | %98
 x2 [GB]2 [=EG]2 | x6 | x6 | x6 | x6 | x6 | [B,_D]2 [A,C]4 | [_DFA]6 | x6 | _C4 x2 | _G,4 G,2 || %109
[M:4/4] [F,A,]4 x4 | _A,8 | B,4 [_G,=A,]4 | [_G,=A,]2 _A,2 [G,A,]4 | [=E,G,]4 [E,G,]4 | ^C8 | ^C8 | %116
 [_D_E]4 [_CE_c]4 | [A,=DF]8 | x8 ||[M:3/4] x6 | x6 | x6 | (E2 F,) x2 [A,B,] | G,2 G,2 z2 | %124
 [A,B,]2 [G,B,]2 B,2 | A,2 z4 | x6 | =A,3 x =a2 | _A,3 z b2 | x6 |[K:Eb] x6 |[K:Eb] x6 | x2 FE D2 | %133
 G2 F2 E2 | E2 E2 D2 | x6 | x6 | x6 | x6 | x6 | !>!c4 x2 | x6 | E=EF_E x2 | x6 | %144
 x2 [FA][E_G] [_DF]2 | x6 | x6 | x6 | x6 | x6 | x6 | x6 | x6 | x6 | x6 | x6 | x6 | x6 | x6 |] %159
V:6
 x8 | x8 | x8 | x8 | x8 | x8 | x8 | x8 | x8 | x4 !arpeggio![B,,,F,,]2 z2 | x8 | x8 | x8 | x8 | x8 | %15
 x8 | x8 | x8 | x8 | x8 | x8 | x8 | x8 | x8 | x8 | x8 | x8 | x8 | x8 | x8 | x8 | x8 | x8 | x8 | %34
 x8 | x40 | z2 B,,6 | [B,,A,]4- [B,,A,]2 x2 ||[K:Eb][M:3/4] x6 | x6 | x6 | x6 | x6 | x6 | x6 | x6 | %46
 x6 | x6 | x6 | x6 | x6 | x6 | x6 | x6 | x6 | x6 | x6 | x6 | x6 | x6 | x6 | x6 | x6 | x6 | x6 | %65
 x6 | x6 | x6 | x6 | x6 | x6 | x6 | x6 | x6 | x6 | x6 | x6 | x6 | x6 | x6 | x6 | x6 | x6 | x6 | %84
 x6 | x6 | x6 | x6 | x6 | x6 | x6 | x6 | x6 | x6 | x6 | x6 | x6 | x6 | x6 | x6 | x6 | x6 | x6 | %103
 x6 | x6 | x6 | x6 | x6 | x6 ||[M:4/4] x8 | x8 | x8 | x8 | x8 | x8 | x8 | x8 | x8 | x8 || %119
[M:3/4] x6 | x6 | x6 | x6 | x6 | x6 | x6 | x6 | x6 | x6 | x6 |[K:Eb] x6 |[K:Eb] x6 | x6 | x6 | x6 | %135
 x6 | x6 | x6 | x6 | x6 | x6 | x6 | x6 | x6 | x6 | x6 | x6 | x6 | x6 | x6 | x6 | x6 | x6 | x6 | %154
 x6 | x6 | x6 | x6 | x6 |] %159
V:7
 x8 | x8 | x8 | x8 |[K:treble] x8 | x8 | x8 | x8 | x8 | x8 | x8 | x8 | x8 | x8 | x8 | x8 | x8 | %17
 x8 | x8 | x8 | x8 | x8 | x8 | x8 | x8 | x8 | x8 | x8 | x2 D=D x4 | x8 | x8 | x8 | x8 | x8 | x8 | %35
 x40 | x8 | x8 ||[K:Eb][M:3/4] x6 | x6 | x6 | x6 | x6 | x6 | x6 | x6 | x6 | x6 | x6 | x6 | x6 | %51
 x6 | x6 | x6 | x6 | x6 | x6 | x6 | x6 | x6 | x6 | x6 | x6 | x6 | x6 | x6 | x6 | x6 | x6 | x6 | %70
 x6 | x6 | x6 | x6 | x6 | x6 | x6 | x6 | x6 | x6 | x6 | x6 | x6 | x6 | x6 | x6 | x6 | x6 | x6 | %89
 x6 | x6 | x6 | x6 | x6 | x6 | x6 | x6 | x6 | x6 | x6 | x6 | x6 | x6 | x6 | x6 | x6 | x6 | x6 | %108
 x6 ||[M:4/4] x8 | x8 | x8 | x8 | x8 | x8 | x8 | x8 | x8 | x8 ||[M:3/4] x6 | x6 | x6 | x6 | x6 | %124
 x6 | x6 | x6 | x6 | x6 | x6 |[K:Eb] x6 |[K:Eb] x6 | x6 | x6 | x6 | x6 | x6 | x6 | x6 | x6 | x6 | %141
 x6 | x6 | x6 | x6 | x6 | x6 | x6 | x6 | x6 | x6 | x6 | x6 | x6 | x6 | x6 | x6 | x6 | x6 |] %159
V:8
!p! (C2"_sost." =A,4 B,2 | G,2 F,2- F, _F,2 E,) | [E,G,B,]4 [=D,C]4 | (B,3 A, G,2 F,2) | %4
[K:treble] E4 [CE]4 | [A,C_F]4 [A,B,=F]2 [A,B,=D]2 |"_cresc." [G,B,E]4 [G,G]4 | =C4- C2 [=A,=C]2 | %8
 [B,D]2"_dim." F,2 =G,2 =A,2 |!p! z (F=G=A B2 =cd | [EBe]2) E6 |!<(! E2 =G2- GA E2!<)! | %12
!>(! F2 =D2 E2 F2!>)! | B,2 A,2 B,2 z2 |!p! ([A,CE]4 [B,=D]4 | %15
"^con anima" E>)E!f!"_cresc."F>G =G>AB>c | !>!=c!>!d!>![G=d]!>![Ge] (!>![_C_DF]2 [EG][FA]) | %17
 [B,GB]B,/C/ D>G B2!sfz! [Gg]2- |"^marcato" [Gg][Ff][Gg][Ff] [Ee][Dd][Cc][B,B] | %19
 [CAc]4 [CAc]2 [CEA]2 | A2 G2 [CF]4 | ([CDF]2 [B,DG]4) [B,D]2 |!ff! b>ag>f g>fe>d | %23
 [CAc]2 [CE]2 [CEA]2 [CEG]2 | [CDF]2 z2 [Fcd]2 z2 |!ff! [=A=d^f] [^FAd]2 [FA] [FAd] [FA]2 F | %26
 [_G_A] z [GA]2 z2 E2 |!<(! D2 [=CG]2 [DF]2!<)! [=B,F]2 | =C2 B,2 A,2 A,2 | %29
 z2 F,2-!>(! F,=G,_A,=A,!>)! | [B,=DF]4 [B,_DG]4 |!<(! [B,=DF]2 [A,=B,DF-]2!<)!!>(! =A,4!>)! | %32
!p!!<(! [F,B,=DF]4!<)!!>(! [B,_DG]4!>)! |!p! [CG]2 [CG]2 [cg]2 z2 | [=CEF]8 | %35
 !fermata![B,=DF]4 x4 !fermata!z4 x4 x4 x4 x4 x4 x4 x4 |!p! z4!<(! ([F,A,=D]2 [A,DF]2!<)! | %37
!>(! ([=D-F-=c]4 !fermata![DFB]2))!>)! !fermata!z2 ||[K:Eb][M:3/4]!ff! EF/G/ A/B/c/d/ (e2- | %39
 ed f) (!>!B2 A) | [B,EG]2 [CEA][_DGB][EAc][EAce] | [EFB]2 [DFB]2 z2 | [G,B,E]2 z2 z .[B,E] | %43
 [A,B,A]2 z2 [B,FA]2 | [B,EG]2 [B,E]2 [A,CF]2 | [G,B,E]2 [F,B,D]2!mf! z2 | (B,=A, B,2) ([_A,B,]2- | %47
 [A,B,-]2 [G,B,])(B,EF) |"_cresc." (D^C D2) ([=CD]2- | [CD-]2 [=B,D])!f!(DGF | EDCB,=A,C | %51
 D2 z (D [FA])[EG]/[DF]/ | [CE]2) z (D [CE][A,F] | !>![CE]2!<(! [B,D]2) z2!<)! |!f! [DFB]2 z2 z F | %55
 [EF]2 z2 [EFc]2 | [DFB]c/d/ e/f/g/=a/ (b2- | b=a c') (f2 e) | (d3 =A BG) |!p! (f3 c dB) | %60
 z2 [CD=A]z[B,DG] z | z2 [EFe]z[DFB] z | z2 [_CE_G]2 [B,EG]2 | [E-_G]2 [EF=A]G"_cresc."FA | %64
!<(! [E_G]4 [DEG]2!<)! |!sfz! ([E_GB]2!>(! [CE=A]4)!>)! |!p! F2 E2 D2 | C2 E4 | D2 =A,2 B,2 | %69
!mf! (g2 !>!A3 B) | z2 ([CG]2 [DF]2) | [B,EB]6 | [=A,F]2 [_EF-]4 | [DF]2 z2 B,2 | (F4 E2) | %75
 (D2 E2 ^F2 | [DG]2) z2 z2 | [CEG]2 z2 z2 | z2!>(! ([=A,F]2 [B,F_G]2 | %79
 [=B,FG]2 [CEA]2 [E=A]2)!>)! |"^con calma"!pp! (B4 =A2 | [B,EG]2 [CE=A][B,EB] [A,EF]2) | [B,DF]6 | %83
!<(! E4 [EF]2!<)! |!pp!"_subito" (_G4 F2 | [_CE]2 [A,CF][CEA] [C_D]2) | [_G,B,_D]6 | _C4 [C_D]2 | %88
!f! [=A,D]=E/^F/ =G/=A/=B/^c/ d2- | d^c =e (!>!=A2 G) | [D^F]2 z2 z .[D=A] | G2 z2 =A2 | %92
!sfz! D2 z2!sfz! D2 | [DG]2 z2!sfz! [DG]2 |!sfz! G2 G !>!C2 B, |"^marcato" (F4 =E2 | D2 =EG c2) | %97
 ([cf]4 [=A=e]2 | [FBd]2 eg c2- | c2)!p! (C2 !>!B,2- | B,2 =A,2)"_cresc." z2 | ([^C=A]4 [=D^G]2) | %102
 ([D^G]2 [^C=A]2) z2 |!pp!"_calmato" [_A,_DF]6 | _G6 |!p! (_d4 c2 | [_GB]2 [_DGc][DGe] [CGA]2) | %107
"_cresc." ([_F_c]2 F2 [F_G][F_A]) |!>(! ([CE=A]4!>)!!pp! !fermata![CEB]2) || %109
[M:4/4]!p! [_DF]4 [=A,C]4 | A3 _G F2 E2 | [_D_G]4 [DG]4 |"_cresc." [_D_G]4 [CG]4 | %113
"_cresc." [^C=E]4 [DE]4 |!ff!!ff! !///-![=E=A]4 ^c4 | !///-![=E=A]4 ^c4 |"_dim." [_B_d]4 _A2 _G2 | %117
!p!!p! (_c4- c =A2 B) | !fermata![DFB]8 ||[M:3/4]!f!!f! [B,E]2 z2 z .[B,E] | %120
 [A,B,A]2 z [DB] E[B,FA] | [B,EG]3 [CEA] [B,EB][A,CE] | [G,B,]C [B,D]C B,[DA] | %123
 [B,EG]2 B,2 [A,B,]2 | [D^F]2 [EG]2 [EG]2 | [EA]2 E2 [_DE]2 | ([_DF=B]2 [CEA]2) z2 | %127
 [EF=A]3 A!sfz! [Aef]2 | [DFB]3 B!sfz! [Adf]2 |"^piu mosso"!ff!"_con fuoco" [EGBe]4 [EGBd]2 | %130
 [EAc]2 [FAd][Ef] [DAB]2 | [EGB]4 [EG=B]2 | [EAc]2 [A_B]2 [AB]2 | [Be]2 [Ad]2 [B_d]2 | %134
 [Ac]2 [_G_c]2 [FB]2 | [EF=A]4 z2 | [E=Ace]3 F GA | [Begb]6 | [B,EGB]6 | %139
 !>![FABe]2 !>![FABd]2 !>![EGB_d]2 | [=EGB]2 [FA]2 !arpeggio!!>![DABf]2 | %141
!ff!"_sempre" [EGBe]4 [EGBd]2 | [Ac]2 [Ad]f [DAB]2 | [_D_FB]4 [=DGB]2 | [E_G_c]2 c2 c2 | %145
 [_GB]2 _c2 [G_d]2 | [_G_c]2 [=Ad]2 [_A_d]2 | [FA_c][_GB] [FA][EG] [_CF][=CE] | %148
 [B,D]B,/C/ D/E/F/G/ A/B/c/d/ | ef/g/ a/b/c'/d'/ e'/f'/g'/=a'/ | [e'g'b'] z!sfz! [EGB]2 z2 | %151
!sfz! [B,D]!>!F!>!G!>!A!>!Bz/B,/ |!ff! [A,EF]6 | [A,B,DF]6 | ([B,E]F/G/ A/B/c/d/) .e.B | %155
 (ef/g/ a/b/c'/d'/) .e'.b | [ee']4 z3/2 [GBeg]/ | [GBeg]4 z3/2 [G,B,E]/ | !fermata![G,B,E]6 |] %159
V:9
 (C,2 =A,,4 B,,2 | G,,2 F,,2- F,, _F,,2 E,,) | [E,,B,,]4 A,,4 | (G,,3 F,, E,,2 D,,2) | %4
 (C,,3 B,,, A,,,G,,F,,E,,) | =D,,2 =D,4 F,2 | E,2 D,2 C,2 B,,2 | =A,,4- A,,=G,, F,,2 | %8
 B,,2 D,,2 E,,2 [F,,E,]2 | (!arpeggio![F,,E,]4 !arpeggio!D,)=C,B,,_A,, | =G,,2 G,,F,, E,,4 | %11
 A,,2 B,,2 C,2 A,,2 | =D,,2 B,,,2 C,,2 D,,2 | E,,2 F,,2 G,,2 z2 | A,,2 z2 B,,2 z2 | %15
 E,,2 E,2 D,2 C,2 | B,,2 =A,,2 _A,,2 D,,2 | G,,G,,/A,,/ B,,>D, G,2 z2 | z8 | %19
 [A,,A,]3 E, A,,2 G,,2 | F,,2 E,,2 D,,2 D,2 | G,,3 D, G,4 | G,>F,E,>D, E,>D,C,>B,, | %23
 A,,>E,, A,,>G,, F,,2 A,,2 | D,2 z2 [A,,D,]2 z2 | =D, ^F,2 =A, F, A,2 A, | %26
 [=C,E,_A,] z [=CE]2 z2 [G,A,]2 | [F,A,]2 [E,A,]2 [D,A,]2 [=D,A,]2 | [E,A,]2 D,2 =C,2 G,2 | %29
 F,2 E,2 D,2 =C,2 | B,,4 G,4 | G,4 F,4 | B,,4 _F,,4 | E,,6 z2 | F,,8 | %35
 !fermata![B,,,B,,]4 x4 !fermata!z4 x4 x4 x4 x4 x4 x4 x4 | B,,8- | %37
 B,,4- !fermata!B,,2 !fermata!z2 ||[K:Eb][M:3/4] [E,,B,,G,]2 z2 z .G, | F,2 z2 D,2 | %40
 E,_D,C,B,,A,,F,, | B,,2 [B,,F,A,]2 z2 | [E,,B,,E,]2 z2 z .[G,,G,] | F,2 z2 D,2 | E,2 G,,2 A,,2 | %45
 B,,4 (A,,2 | G,,^F,, G,,2 D,,2 | E,,4) z2 | =B,,^A,, B,,2 ^F,,2 | G,,3 (F, E,D, | %50
 C,B,,=A,,G,,F,,E,, | D,,D, G,,3) (=A,,/=B,,/ | C,D,E,=B,,C,F,, | B,,3) (C,/D,/ E,/F,/G,/=A,/ | %54
 B,2) z2 z D, | C,2 z2 =A,,2 | B,,2 z2 z .[G,B,=E] | [F,CF]2 z2 [F,C]2 | z2 ([^F,=A,C]2 [G,B,]2) | %59
 z2 ([=A,CE]2 [B,D]2) | z2 [^F,,D,]z[B,,F,] z | z2 [=A,,F,]z[B,,F,] z | z2 (E,,2 E,2 | E,,4) z2 | %64
 z2 (E,,2 E,2 | E,,4 E,2) | D,2 C,2 B,,2 | =A,,2 G,,2 F,,2 | B,,2 E,2 D,2 | z2 ([E,C]2 [D,B,]2) | %70
 z2 (E,2 D,2) | C,6 | F,,2 G,,2 =A,,2 | (D,2 C,2 B,,2 | =A,,2 G,,2 F,,2 | ^F,,2 G,,2 =A,,2 | %76
 B,,2) z2 z2 | C,2 z2 z2 | z2 (E,,2 D,,2 | _D,,2 C,,2 [_C,,F,,]2) | %80
 (3B,,,F,,B,,, (3F,,B,,,F,, (3B,,,F,,B,,, | (3F,,B,,,F,, (3B,,,F,,B,,, (3F,,B,,,F,, | %82
 (3B,,,F,,B,,, (3F,,B,,,F,, (3B,,,F,,B,,, | (3F,,B,,,F,, (3B,,,F,,B,,, (3F,,B,,,F,, | %84
 (3_G,,,_D,,G,,, (3D,,G,,,D,, (3G,,,D,,G,,, | (3_D,,_G,,,D,, (3G,,,D,,G,,, (3D,,G,,,D,, | %86
 (3_G,,,_D,,G,,, (3D,,G,,,D,, (3G,,,D,,G,,, | (3_D,,_G,,,D,, (3G,,,D,,G,,, (3D,,G,,,D,, | %88
 ^F,,2 z2 z .^F, | =E,2 z2 [^C,=A,]2 | [D,=A,]2 z2 z .^F, | =E,2 z2 ^C,2 | D,^F, =A, D,2 C, | %93
 C,=B,, z2 B,,2 | C,2 z2 [C,G,]2 | (3F,,C,F,, (3C,F,,C, (3F,,C,F,, | %96
 (3C,F,,C, (3F,,C,F,, (3C,F,,C, | (3F,,C,F,, (3C,F,,C, (3F,,C,F,, | %98
 (3C,F,,C, (3F,,C,F,, (3B,,C,B,, | =A,,4 =E,,2 | (C,3 ^C, D,^D,) | (^D,2 =E,2 F,2) | %102
 (=E,3 F, ^F,=G,) | (3_A,,,A,,A,,, (3A,,A,,,A,, (3A,,,A,,A,,, | %104
 (3A,,A,,,A,, (3A,,,A,,A,,, (3A,,A,,,A,, | (3A,,,A,,A,,, (3A,,A,,,A,, (3A,,,A,,A,,, | %106
 (3A,,A,,,A,, (3A,,,A,,A,,, (3A,,A,,,A,, | (3A,,,A,,A,,, (3A,,A,,,A,, (3A,,,"^rall."A,,_A,,, | %108
 (3A,,A,,,A,, (3A,,,A,,A,,,- [A,,,A,,]2 ||[M:4/4] A,,4 _G,,4 | F,,3 E,, _D,,2 C,,2 | B,,4 E,,4 | %112
 A,,4 E,4 | [^G,,^C,]4 [=E,,=B,,]4 | !///-![=A,,,=E,,]4 (=A,,4 | [=E,,=A,,]2) z2 A,,2 ^G,,2 | %116
 !///-!G,,,2 G,,2 !///-!_A,,,2 _A,,2 | [G,,,B,,]8 | !fermata![B,,A,]8 || %119
[M:3/4] [B,,E,G,]2 z2 z .G, | [F,,B,,F,]2 z B,,C,D, | E,D,E,C,G,,A,, | B,,=A,,B,,_A,,=G,,F,, | %123
 E,,B,, E,2 D,2 | E,3 B,, E,_D, | C,=B,, C,2 G,,2 | A,,4 G,,2 | F,,2 F,,3 F,, | B,,2 B,,3 B,, | %129
 (3E,,B,,E,, (3B,,E,,B,, (3E,,B,,E,, | (3B,,E,,B,, (3E,,B,,E,, (3B,,E,,B,, | %131
 (3E,,B,,E,, (3B,,E,,B,, (3E,,_B,,E,, | (3B,,E,,B,, (3E,,B,,E,, (3B,,E,,B,, | E,,2 F,,2 G,,2 | %134
 A,,2 =A,,2 B,,2 | C,=B,, C,2 z2 | F,=E, F,2 z2 | B,6 | B,,6 | !///-!B,,,3 B,,3 | %140
 !///-!B,,,3 B,,3 | (3E,,B,,E,, (3B,,E,,B,, (3E,,B,,E,, | (3B,,_E,,B,, (3E,,B,,E,, (3F,,B,,F,, | %143
 (3_G,,_D,G,, (3D,G,,D, (3G,,D,G,, | (3_D,_G,,D, (3G,,D,G,, (3D,G,,D, | _G,,2 A,,2 B,,2 | %146
 _C,2 =C,2 _D,2 | =D,E, F,_G, A,G, | F,2 z2 A,2 | G,2 z2 C,2 | B,, z [E,G,B,]2 z2 | %151
 B,,!>!F,!>!G,!>!A,!>!B, z | !///-!B,,,3 B,,3 | !///-!B,,,3 B,,3 | (E,,F,/G,/ A,/B,/C/D/) .E.B, | %155
 (ED/C/ B,/A,/G,/F,/) .E,.B,, | [E,,E,]4 z3/2 [E,B,E]/ | [E,B,E]4 z3/2 [E,,B,,E,]/ | %158
 !fermata![E,,B,,E,]6 |] %159
V:10
 x8 | x8 | x8 | x8 |[K:treble] A,3 B, x4 | x8 | x4 E2 D2 | x4 _CB, x2 | x8 | =A,2 =C2 B,2 CD | %10
 x2 B,A, =G,4 | A,B,D_F E2 E2 | [B,B]8 | E4 E2 z2 | x8 | x8 | x8 | x8 | x8 | x8 | x8 | x8 | x8 | %23
 x8 | x8 | x8 | ((!>!_g4 g)ed=c) | (B A2) (A A2) x2 | (G4 [EG]2) E2 | [=CF-]4 [B,F]2 [EF]2 | x8 | %31
 x4 [=CEF]C=DE | x8 | x6 z2 | x8 | x40 | x8 | x8 ||[K:Eb][M:3/4] x6 | x6 | x6 | x6 | x6 | x6 | x6 | %45
 x6 | x6 | x6 | x6 | x6 | x6 | x6 | x6 | x6 | x6 | x6 | x6 | z4 [Fc]2 | z2 D2 D2 | z2 F2 F2 | x6 | %61
 x6 | x6 | =C2- C2 z2 | x6 | =C2 (=G2 F2) | x6 | x2 B,2 =A,2 | x6 | z2 (F2 F2) | x6 | x6 | %72
 A2 B,2 C2 | B,2 x4 | C2 B,2 [=A,C]2 | C2 B,2 [=A,C]2 | G,2 x4 | x6 | x6 | x6 | [B,DF]6 | x6 | x6 | %83
 B,2 CB, =A,2 | [_G,B,D]6 | G,2 z4 | x6 | _G,2 A,G, F,2 | x4 z .[D=A] | [=EG]2 z2 E2 | x6 | x6 | %92
 x6 | x6 | C=E x2 z2 | [=A,C]6 | B,6 | F6 | z2 [GB]2 [=EG]2 | x6 | x6 | x6 | x6 | x6 | %104
 [B,_D]2 [A,C]4 | [_DFA]6 | x6 | _C4 x2 | _G,4 G,2 ||[M:4/4] [F,A,]4 x4 | _A,8 | B,4 [_G,=A,]4 | %112
 [_G,=A,]2 _A,2 [G,A,]4 | [=E,G,]4 [E,G,]4 | ^C8 | ^C8 | [_D_E]4 [_CE_c]4 | [A,=DF]8 | x8 || %119
[M:3/4] x6 | x6 | x6 | (E2 F,) x2 [A,B,] | G,2 G,2 z2 | [A,B,]2 [G,B,]2 B,2 | A,2 z4 | x6 | %127
 =A,3 x =a2 | _A,3 z b2 | x6 | x6 | x6 | x6 | x6 | x6 | x6 | x6 | x6 | x6 | x6 | !>!c4 x2 | x6 | %142
 x6 | x6 | x2 [FA][E_G] [_DF]2 | x6 | x6 | x6 | x6 | x6 | x6 | x6 | x6 | x6 | x6 | x6 | x6 | x6 | %158
 x6 |] %159
V:11
 x8 | x8 | x8 | x8 | x8 | x8 | x8 | x8 | x8 | x4 !arpeggio!F,,2 z2 | x8 | x8 | x8 | x8 | x8 | x8 | %16
 x8 | x8 | x8 | x8 | x8 | x8 | x8 | x8 | x8 | x8 | x8 | x8 | x8 | x8 | x8 | x8 | x8 | x8 | x8 | %35
 x40 | x8 | x8 ||[K:Eb][M:3/4] x6 | x6 | x6 | x6 | x6 | x6 | x6 | x6 | x6 | x6 | x6 | x6 | x6 | %51
 x6 | x6 | x6 | x6 | x6 | x6 | x6 | x6 | x6 | x6 | x6 | x6 | x6 | x6 | x6 | x6 | x6 | x6 | x6 | %70
 x6 | x6 | x6 | x6 | x6 | x6 | x6 | x6 | x6 | x6 | x6 | x6 | x6 | x6 | x6 | x6 | x6 | x6 | x6 | %89
 x6 | x6 | x6 | x6 | x6 | x6 | x6 | x6 | x6 | x6 | x6 | x6 | x6 | x6 | x6 | x6 | x6 | x6 | x6 | %108
 x6 ||[M:4/4] x8 | x8 | x8 | x8 | x8 | x8 | x8 | x8 | x8 | x8 ||[M:3/4] x6 | x6 | x6 | x6 | x6 | %124
 x6 | x6 | x6 | x6 | x6 | x6 | x6 | x6 | x6 | x6 | x6 | x6 | x6 | x6 | x6 | x6 | x6 | x6 | x6 | %143
 x6 | x6 | x6 | x6 | x6 | x6 | x6 | x6 | x6 | x6 | x6 | x6 | x6 | x6 | x6 | x6 |] %159
V:12
 x8 | x8 | x8 | x8 |[K:treble] x8 | x8 | x8 | x8 | x8 | x8 | x8 | x8 | x8 | x8 | x8 | x8 | x8 | %17
 x8 | x8 | x8 | x8 | x8 | x8 | x8 | x8 | x8 | x8 | x8 | x2 D=D x4 | x8 | x8 | x8 | x8 | x8 | x8 | %35
 x40 | x8 | x8 ||[K:Eb][M:3/4] x6 | x6 | x6 | x6 | x6 | x6 | x6 | x6 | x6 | x6 | x6 | x6 | x6 | %51
 x6 | x6 | x6 | x6 | x6 | x6 | x6 | x6 | x6 | x6 | x6 | x6 | x6 | x6 | x6 | x6 | x6 | x6 | x6 | %70
 x6 | x6 | x6 | x6 | x6 | x6 | x6 | x6 | x6 | x6 | x6 | x6 | x6 | x6 | x6 | x6 | x6 | x6 | x6 | %89
 x6 | x6 | x6 | x6 | x6 | x6 | x6 | x6 | x6 | x6 | x6 | x6 | x6 | x6 | x6 | x6 | x6 | x6 | x6 | %108
 x6 ||[M:4/4] x8 | x8 | x8 | x8 | x8 | x8 | x8 | x8 | x8 | x8 ||[M:3/4] x6 | x6 | x6 | x6 | x6 | %124
 x6 | x6 | x6 | x6 | x6 | x6 | x6 | x6 | x6 | x6 | x6 | x6 | x6 | x6 | x6 | x6 | x6 | x6 | x6 | %143
 x6 | x6 | x6 | x6 | x6 | x6 | x6 | x6 | x6 | x6 | x6 | x6 | x6 | x6 | x6 | x6 |] %159

